icons/Phone.svg

<svg width="24" height="24" viewBox="0 0 24 24" fill="none" xmlns="http://www.w3.org/2000/svg">
<path fill-rule="evenodd" clip-rule="evenodd" d="M4.99988,4.74994c-0.33152,0 -0.64947,0.13169 -0.88389,0.36612c-0.22961,0.22961 -0.36067,0.53935 -0.36595,0.8635c0.23151,3.70856 1.80913,7.20534 4.437,9.83324c2.62786,2.6278 6.12466,4.2055 9.83326,4.437c0.3241,-0.0053 0.6338,-0.1364 0.8635,-0.366c0.2344,-0.2344 0.3661,-0.5523 0.3661,-0.8839v-2.6459c0,-0.5111 -0.3112,-0.9708 -0.7858,-1.1606l-2.1613,-0.8645c-0.5697,-0.2279 -1.2205,-0.0086 -1.5361,0.5175l-0.6237,1.0394c-0.2008,0.3347 -0.6248,0.4594 -0.9749,0.2868c-2.3195,-1.144 -4.19689,-3.0213 -5.34087,-5.3409c-0.17264,-0.3501 -0.04793,-0.7741 0.28678,-0.97488l1.03946,-0.62368c0.52609,-0.31565 0.74533,-0.96646 0.51747,-1.5361l-0.86453,-2.16134c-0.18983,-0.47457 -0.64947,-0.78576 -1.1606,-0.78576zM3.05533,4.0554c0.51573,-0.51573 1.2152,-0.80546 1.94455,-0.80546h2.64593c1.12449,0 2.13569,0.68461 2.55329,1.72867l0.8646,2.16134c0.5012,1.25322 0.0189,2.68499 -1.13849,3.37945l-0.42724,0.2563c0.89603,1.5455 2.18073,2.8302 3.72613,3.7261l0.2563,-0.4272c0.6945,-1.1574 2.1262,-1.6397 3.3795,-1.1384l2.1613,0.8645c1.0441,0.4176 1.7287,1.4288 1.7287,2.5533v2.6459c0,0.7294 -0.2898,1.4289 -0.8055,1.9446c-0.5157,0.5157 -1.2152,0.8054 -1.9445,0.8054c-0.0152,0 -0.0304,-0.0004 -0.0455,-0.0013c-4.0836,-0.2482 -7.9352,-1.9823 -10.82802,-4.8752c-2.89286,-2.8928 -4.62696,-6.7444 -4.87512,-10.82797c-0.00092,-0.01514 -0.00138,-0.03032 -0.00138,-0.04549c0,-0.72935 0.28973,-1.42882 0.80545,-1.94454z" fill="#002B51"/>
</svg>

<svg width="24" height="24" viewBox="0 0 24 24" fill="none" xmlns="http://www.w3.org/2000/svg">
<path fill-rule="evenodd" clip-rule="evenodd" d="M4.99988 4.74994C4.66836 4.74994 4.35041 4.88163 4.11599 5.11606C3.88638 5.34567 3.75532 5.65541 3.75004 5.97956C3.98155 9.68812 5.55917 13.1849 8.18704 15.8128C10.8149 18.4406 14.3117 20.0183 18.0203 20.2498C18.3444 20.2445 18.6541 20.1134 18.8838 19.8838C19.1182 19.6494 19.2499 19.3315 19.2499 18.9999V16.354C19.2499 15.8429 18.9387 15.3832 18.4641 15.1934L16.3028 14.3289C15.7331 14.101 15.0823 14.3203 14.7667 14.8464L14.143 15.8858C13.9422 16.2205 13.5182 16.3452 13.1681 16.1726C10.8486 15.0286 8.97121 13.1513 7.82723 10.8317C7.65459 10.4816 7.7793 10.0576 8.11401 9.85682L9.15347 9.23314C9.67956 8.91749 9.8988 8.26668 9.67094 7.69704L8.80641 5.5357C8.61658 5.06113 8.15694 4.74994 7.64581 4.74994H4.99988ZM3.05533 4.0554C3.57106 3.53967 4.27053 3.24994 4.99988 3.24994H7.64581C8.7703 3.24994 9.7815 3.93455 10.1991 4.97861L11.0637 7.13995C11.5649 8.39317 11.0826 9.82494 9.92521 10.5194L9.49797 10.7757C10.394 12.3212 11.6787 13.6059 13.2241 14.5018L13.4804 14.0746C14.1749 12.9172 15.6066 12.4349 16.8599 12.9362L19.0212 13.8007C20.0653 14.2183 20.7499 15.2295 20.7499 16.354V18.9999C20.7499 19.7293 20.4601 20.4288 19.9444 20.9445C19.4287 21.4602 18.7292 21.7499 17.9999 21.7499C17.9847 21.7499 17.9695 21.7495 17.9544 21.7486C13.8708 21.5004 10.0192 19.7663 7.12638 16.8734C4.23352 13.9806 2.49942 10.129 2.25126 6.04543C2.25034 6.03029 2.24988 6.01511 2.24988 5.99994C2.24988 5.27059 2.53961 4.57112 3.05533 4.0554Z" fill="#002B51"/>
</svg>
